images_sukapura_svg/cmd/lc_resetattributes.svg

<svg viewBox="0 0 24 24" xmlns="http://www.w3.org/2000/svg"><path d="m11.730469 2-9.7324221 18.003906h2.9804687l2.1757813-4.203125h5.6093751l3.240234-2.970703-1.480468-10.830078zm.580078 3.8339844.074219.0117187.841796 7.4453129h-4.773437z" fill="#4b4b4f"/><path d="m1.5 21c-.277 0-.5.223-.5.5s.223.5.5.5h9c-.26655-.291318-.5129432-.669998-.431642-1z" fill="#4b4b4f"/><path d="m20.023437 10.66668-7.22977 6.826302-1.129346 2.420883c-.290506.290127-.147295 1.007368.143211 1.297496l2.467831 1.940335c.145253.145064.837068.2705 1.02663.2705l2.343181-.712149 5.076889-5.511248.671356-3.731186z" fill="none" stroke="#b6496c"/><path d="m16.518661 20.388672 6.495399-6.642082-2.969866-2.406793-6.847606 6.327329z" fill="#e68497"/><path d="m15.06022 22.943155c.189562 0 .367135-.14906.512389-.294137l.957771-2.242768-3.333792-2.739124-.994881 2.211518c-.290506.290127-.290506.756747 0 1.046875l2.266831 1.75112c.145254.145064.40212.266516.591682.266516z" fill="#e7acbc"/><path d="m15.241153 22.93628 2.194847-.654818 4.949484-5.279652.628576-3.25522-6.48368 6.65966z" fill="#ab4263"/><path d="m13.589814 18.034536 6.466301-6.026452 2.633511 2.124432" fill="none" stroke="#f398b3"/></svg>

<?xml version="1.0" encoding="UTF-8" standalone="no"?>
<svg
   xmlns:dc="http://purl.org/dc/elements/1.1/"
   xmlns:cc="http://creativecommons.org/ns#"
   xmlns:rdf="http://www.w3.org/1999/02/22-rdf-syntax-ns#"
   xmlns:svg="http://www.w3.org/2000/svg"
   xmlns="http://www.w3.org/2000/svg"
   xmlns:sodipodi="http://sodipodi.sourceforge.net/DTD/sodipodi-0.dtd"
   xmlns:inkscape="http://www.inkscape.org/namespaces/inkscape"
   viewBox="0 0 24 24"
   version="1.1"
   id="svg16"
   sodipodi:docname="lc_resetattributes.svg"
   inkscape:version="0.92.3 (2405546, 2018-03-11)">
  <metadata
     id="metadata22">
    <rdf:RDF>
      <cc:Work
         rdf:about="">
        <dc:format>image/svg+xml</dc:format>
        <dc:type
           rdf:resource="http://purl.org/dc/dcmitype/StillImage" />
      </cc:Work>
    </rdf:RDF>
  </metadata>
  <defs
     id="defs20" />
  <sodipodi:namedview
     pagecolor="#ffffff"
     bordercolor="#666666"
     borderopacity="1"
     objecttolerance="10"
     gridtolerance="10"
     guidetolerance="10"
     inkscape:pageopacity="0"
     inkscape:pageshadow="2"
     inkscape:window-width="1366"
     inkscape:window-height="716"
     id="namedview18"
     showgrid="true"
     inkscape:snap-global="true"
     inkscape:zoom="11.313709"
     inkscape:cx="38.606197"
     inkscape:cy="5.6601162"
     inkscape:window-x="-8"
     inkscape:window-y="-8"
     inkscape:window-maximized="1"
     inkscape:current-layer="svg16">
    <inkscape:grid
       type="xygrid"
       id="grid829" />
  </sodipodi:namedview>
  <path
     style="font-style:normal;font-weight:normal;font-size:25.3241272px;line-height:1.25;font-family:sans-serif;letter-spacing:0px;word-spacing:0px;fill:#4b4b4f;fill-opacity:1;stroke:none;stroke-width:0.63310313;"
     d="M 11.730469 2 L 1.9980469 20.003906 L 4.9785156 20.003906 L 7.1542969 15.800781 L 12.763672 15.800781 L 16.003906 12.830078 L 14.523438 2 L 11.730469 2 z M 12.310547 5.8339844 L 12.384766 5.8457031 L 13.226562 13.291016 L 8.453125 13.291016 L 12.310547 5.8339844 z "
     id="text833" />
  <path
     d="M 1.5,21 C 1.223,21 1,21.223 1,21.5 1,21.777 1.223,22 1.5,22 h 9 C 10.23345,21.708682 9.9870568,21.330002 10.068358,21 Z"
     id="path4"
     style="fill:#4b4b4f;fill-opacity:1"
     inkscape:connector-curvature="0"
     sodipodi:nodetypes="sssccs" />
  <path
     d="m 20.023437,10.66668 -7.22977,6.826302 -1.129346,2.420883 c -0.290506,0.290127 -0.147295,1.007368 0.143211,1.297496 l 2.467831,1.940335 c 0.145253,0.145064 0.837068,0.2705 1.02663,0.2705 l 2.343181,-0.712149 5.076889,-5.511248 0.671356,-3.731186 z"
     id="path6"
     inkscape:connector-curvature="0"
     style="fill:none;stroke:#b6496c"
     sodipodi:nodetypes="cccccccccc" />
  <path
     d="M 16.518661,20.388672 23.01406,13.74659 20.044194,11.339797 13.196588,17.667126 Z"
     id="path8"
     inkscape:connector-curvature="0"
     style="fill:#e68497"
     sodipodi:nodetypes="ccccc" />
  <path
     d="m 15.06022,22.943155 c 0.189562,0 0.367135,-0.14906 0.512389,-0.294137 l 0.957771,-2.242768 -3.333792,-2.739124 -0.994881,2.211518 c -0.290506,0.290127 -0.290506,0.756747 0,1.046875 l 2.266831,1.75112 c 0.145254,0.145064 0.40212,0.266516 0.591682,0.266516 z"
     id="path10"
     inkscape:connector-curvature="0"
     style="fill:#e7acbc"
     sodipodi:nodetypes="sccccccs" />
  <path
     d="M 15.241153,22.93628 17.436,22.281462 22.385484,17.00181 23.01406,13.74659 16.53038,20.40625 Z"
     id="path12"
     inkscape:connector-curvature="0"
     style="fill:#ab4263"
     sodipodi:nodetypes="cccccc" />
  <path
     d="m 13.589814,18.034536 6.466301,-6.026452 2.633511,2.124432"
     id="path14"
     inkscape:connector-curvature="0"
     style="fill:none;stroke:#f398b3"
     sodipodi:nodetypes="ccc" />
</svg>
